svg/u1f477_1f3fd_200d_2640.svg

<svg viewBox="0 0 128 128" xmlns="http://www.w3.org/2000/svg" xmlns:xlink="http://www.w3.org/1999/xlink">
  <g id="shirt_1_">
    <linearGradient id="SVGID_1_" gradientTransform="matrix(1 0 0 -1 0 130)" gradientUnits="userSpaceOnUse" x1="64" x2="64" y1="34.0401" y2="-7.7768">
      <stop offset="3.200000e-03" stop-color="#448AFF"/>
      <stop offset="0.4042" stop-color="#3B7DFF"/>
      <stop offset="1" stop-color="#2962FF"/>
    </linearGradient>
    <path d="M116,124.14v-3.12c0-16.78-26.35-25.09-52-25.06c-25.49,0.03-52,7.28-52,25.06v3.12H116z" fill="url(#SVGID_1_)"/>
  </g>
  <g id="helmet_x5F_back_1_">
    <path d="M18,52.31c0,9.34,20.6,16.92,46,16.92s46-7.58,46-16.92S18,42.96,18,52.31z" fill="#FFEA00"/>
    <path d="M105.38,52.29c-8.12-5.31-19.54-9.71-41.38-9.72c-21.85,0.01-33.27,4.4-41.38,9.72 c-0.62,0.41-0.78,1.21-0.33,1.8C26.75,59.93,45.76,65.67,64,65.68c18.24-0.02,38-6.62,41.71-11.58 C106.15,53.5,106.01,52.7,105.38,52.29z" fill="#EDBF00"/>
  </g>
  <g id="hair">
    <path id="hair_2_" d="M104.11,45.38c0,17.47-0.95,40.07-5.04,56.57c-9.73-4.01-22.48-6-35.07-5.99 c-12.56,0.02-25.37,1.79-35.14,5.71c-4.03-16.48-4.97-38.92-4.97-56.29c0-0.61-0.33-35.53,40.68-35.53 C105.58,9.85,104.11,44.77,104.11,45.38z" fill="#543930"/>
  </g>
  <g id="neck">
    <path id="neck_1_" d="M64,90.11h-9.08v9.98c0,4.51,3.7,8.17,8.26,8.17h1.65c4.56,0,8.26-3.66,8.26-8.17 v-9.98C73.08,90.11,64,90.11,64,90.11z" fill="#99674F"/>
  </g>
  <path id="head_1_" d="M64,15.77c-17.2,0-33.13,12.79-33.13,39.91c0,21.79,13.49,34.67,25.23,38.83 C58.9,95.5,61.6,96,64,96c2.38,0,5.07-0.49,7.85-1.47c11.76-4.14,25.28-17.03,25.28-38.84C97.13,28.56,81.2,15.77,64,15.77z" fill="#BA8D68"/>
  <g id="face">
    <g id="hair_1_">
      <path id="hair_3_" d="M101.89,45.38c0,0,1.02-35.57-37.81-35.57S26.11,45.38,26.11,45.38 s0.33,31.34,3.2,37.26s7.19,5.71,7.19,5.71s-2.03-12.4-2.26-24.9c-0.06-2.92-0.94-15.73,5.16-17.09 c22.36-5.02,35.01-14.88,35.01-14.88c3.29,7.19,13.58,14.19,17.27,16.86c3.03,2.19,2.61,11.2,2.55,15.03l-3.05,24.92 c0,0,4.68,0.37,7.65-5.64C101.8,76.62,101.89,45.38,101.89,45.38z" fill="#543930"/>
    </g>
    <g id="eyes_3_">
      <ellipse cx="48.4" cy="58.81" fill="#49362E" rx="4.93" ry="5.1"/>
      <ellipse cx="79.6" cy="58.81" fill="#49362E" rx="4.93" ry="5.1"/>
    </g>
    <g id="eyebrow_1_">
      <path d="M55.64,49.82c-0.93-1.23-3.07-3.01-7.23-3.01s-6.31,1.79-7.23,3.01c-0.41,0.54-0.31,1.17-0.02,1.55 c0.26,0.35,1.04,0.68,1.9,0.39s2.54-1.16,5.35-1.18c2.81,0.02,4.49,0.89,5.35,1.18c0.86,0.29,1.64-0.03,1.9-0.39 C55.94,50.99,56.05,50.36,55.64,49.82z" fill="#613E31"/>
      <path d="M86.83,49.82c-0.93-1.23-3.07-3.01-7.23-3.01c-4.16,0-6.31,1.79-7.23,3.01 c-0.41,0.54-0.31,1.17-0.02,1.55c0.26,0.35,1.04,0.68,1.9,0.39s2.54-1.16,5.35-1.18c2.81,0.02,4.49,0.89,5.35,1.18 c0.86,0.29,1.64-0.03,1.9-0.39C87.13,50.99,87.24,50.36,86.83,49.82z" fill="#613E31"/>
    </g>
    <path id="nose" d="M67.81,68.15c-0.11-0.04-0.21-0.07-0.32-0.08h-6.99c-0.11,0.01-0.21,0.04-0.32,0.08 c-0.63,0.26-0.98,0.91-0.68,1.61c0.3,0.7,1.69,2.66,4.49,2.66s4.2-1.96,4.5-2.66C68.79,69.06,68.45,68.41,67.81,68.15z" fill="#99674F"/>
    <path id="mouth" d="M72.32,76.23c-3.15,1.87-13.47,1.87-16.61,0c-1.81-1.07-3.65,0.57-2.9,2.21 c0.74,1.61,6.37,5.36,11.23,5.36s10.42-3.75,11.16-5.36C75.95,76.8,74.13,75.16,72.32,76.23z" fill="#5D4037"/>
  </g>
  <radialGradient id="hairHighlights_1_" cx="64.187" cy="60.0382" gradientTransform="matrix(1.030000e-13 1 0.7605 -7.800000e-14 18.5261 3.4599)" gradientUnits="userSpaceOnUse" r="57.3918">
    <stop offset="0.8436" stop-color="#6D4C41" stop-opacity="0"/>
    <stop offset="1" stop-color="#6D4C41"/>
  </radialGradient>
  <path id="hairHighlights" d="M104.12,42.7c0,18.35-0.67,42.05-5.05,59.25 c-9.58-3.79-22.59-5.9-34.91-5.9h-0.14c-12.34,0.02-25.5,1.91-35.16,5.62c-4.32-17.06-4.95-40.73-4.95-58.97 c0-0.61-0.33-29.53,40.68-29.53S104.12,42.09,104.12,42.7z" fill="url(#hairHighlights_1_)"/>
  <g id="safety_x5F_jacket_1_">
    <g>
      <g>
        <linearGradient id="SVGID_2_" gradientTransform="matrix(1 0 0 -1 0 130)" gradientUnits="userSpaceOnUse" x1="44.025" x2="44.025" y1="31.669" y2="-6.0499">
          <stop offset="3.200000e-03" stop-color="#FF9100"/>
          <stop offset="0.4399" stop-color="#FF8400"/>
          <stop offset="1" stop-color="#FF6D00"/>
        </linearGradient>
        <path d="M58.5,124.14H29.55V101.4c1.79-0.7,3.68-1.32,5.64-1.86c2.89-0.82,5.94-1.49,9.1-2.01 c2.14-0.36,4.33-0.65,6.55-0.88L58.5,124.14z" fill="url(#SVGID_2_)"/>
      </g>
      <linearGradient id="SVGID_3_" gradientTransform="matrix(1 0 0 -1 0 130)" gradientUnits="userSpaceOnUse" x1="43.075" x2="43.075" y1="31.8769" y2="-6.8342">
        <stop offset="3.200000e-03" stop-color="#FFFF00"/>
        <stop offset="0.6783" stop-color="#FFF200"/>
        <stop offset="1" stop-color="#FFEA00"/>
      </linearGradient>
      <path d="M50.96,124.14H36.29l-1.1-24.6c2.89-0.82,5.94-1.49,9.1-2.01L50.96,124.14z" fill="url(#SVGID_3_)"/>
    </g>
    <g>
      <g>
        <linearGradient id="SVGID_4_" gradientTransform="matrix(1 0 0 -1 0 130)" gradientUnits="userSpaceOnUse" x1="83.975" x2="83.975" y1="31.6314" y2="-6.0326">
          <stop offset="3.200000e-03" stop-color="#FF9100"/>
          <stop offset="0.4399" stop-color="#FF8400"/>
          <stop offset="1" stop-color="#FF6D00"/>
        </linearGradient>
        <path d="M98.45,101.7v22.44H69.5l7.65-27.45c2.21,0.24,4.4,0.56,6.53,0.94 c3.17,0.57,6.23,1.27,9.12,2.13C94.77,100.34,96.66,100.99,98.45,101.7z" fill="url(#SVGID_4_)"/>
      </g>
      <linearGradient id="SVGID_5_" gradientTransform="matrix(1 0 0 -1 0 130)" gradientUnits="userSpaceOnUse" x1="84.92" x2="84.92" y1="31.7791" y2="-6.7864">
        <stop offset="3.200000e-03" stop-color="#FFFF00"/>
        <stop offset="0.6783" stop-color="#FFF200"/>
        <stop offset="1" stop-color="#FFEA00"/>
      </linearGradient>
      <path d="M92.8,99.76l-1.09,24.38H77.04l6.64-26.51C86.85,98.2,89.91,98.9,92.8,99.76z" fill="url(#SVGID_5_)"/>
    </g>
  </g>
  <g id="helmet">
    <radialGradient id="XMLID_2_" cx="64" cy="98.1613" gradientTransform="matrix(1 0 0 -0.9806 0 127.575)" gradientUnits="userSpaceOnUse" r="34.638">
      <stop offset="0" stop-color="#FFFF00"/>
      <stop offset="0.325" stop-color="#FFF600"/>
      <stop offset="0.8535" stop-color="#FFDE00"/>
      <stop offset="0.9978" stop-color="#FFD600"/>
    </radialGradient>
    <path id="XMLID_4_" d="M64.41,8.1c-46.76,0-43.24,46.43-43.24,46.43s12.21-10.8,43.5-10.8 s42.1,9.8,42.1,9.8S111.17,8.1,64.41,8.1z" fill="url(#XMLID_2_)"/>
    <linearGradient id="SVGID_6_" gradientTransform="matrix(1 0 0 -1 0 130)" gradientUnits="userSpaceOnUse" x1="64.3215" x2="64.3215" y1="125.0854" y2="88.0479">
      <stop offset="0" stop-color="#FFFF00"/>
      <stop offset="0.4462" stop-color="#FFF900"/>
      <stop offset="1" stop-color="#FFEA00"/>
    </linearGradient>
    <path d="M74.72,42.33h-20.8V9.23c0-2.79,2.26-5.05,5.05-5.05h10.7c2.79,0,5.05,2.26,5.05,5.05V42.33z " fill="url(#SVGID_6_)"/>
    <g>
      <g>
        <defs>
          <path id="SVGID_7_" d="M64.41,8.1c-46.76,0-43.24,46.43-43.24,46.43s12.21-10.8,43.5-10.8s42.1,9.8,42.1,9.8 S111.17,8.1,64.41,8.1z"/>
        </defs>
        <clipPath id="SVGID_8_">
          <use overflow="visible" xlink:href="#SVGID_7_"/>
        </clipPath>
        <path id="XMLID_3_" clip-path="url(#SVGID_8_)" d="M47.12,10.4 l6.95-2.3v23.29C52.66,21.33,50.64,14.05,47.12,10.4z" enable-background="new " fill="#EDBF00" opacity="0.5"/>
      </g>
      <g>
        <defs>
          <path id="SVGID_9_" d="M64.41,8.1c-46.76,0-43.24,46.43-43.24,46.43s12.21-10.8,43.5-10.8s42.1,9.8,42.1,9.8 S111.17,8.1,64.41,8.1z"/>
        </defs>
        <clipPath id="SVGID_10_">
          <use overflow="visible" xlink:href="#SVGID_9_"/>
        </clipPath>
        <path clip-path="url(#SVGID_10_)" d="M81.71,10.4l-6.95-2.3v23.29 C76.17,21.33,78.19,14.05,81.71,10.4z" enable-background="new " fill="#EDBF00" opacity="0.5"/>
      </g>
    </g>
    <path d="M109.53,51.17c-0.25-0.42-0.64-0.74-1.07-0.99C90.36,39.76,64,40.1,64,40.1s-26.36-0.34-44.46,10.07 c-0.44,0.25-0.82,0.57-1.07,0.99c-0.53,0.9-0.97,2.61,0.75,5.08c0,0,10.95-10.85,44.78-11.53c33.82,0.69,44.78,11.53,44.78,11.53 C110.5,53.78,110.06,52.07,109.53,51.17z" fill="#FFEA00"/>
  </g>
</svg>

<svg viewBox="0 0 128 128" xmlns="http://www.w3.org/2000/svg">
  <defs>
    <radialGradient id="hairHighlights_1_" cx="67.6469" cy="84.398621" gradientTransform="matrix(0 1 0.7605 0 0 0)" gradientUnits="userSpaceOnUse" r="57.3918">
      <stop offset="0.8436" stop-color="#6D4C41" stop-opacity="0"/>
      <stop offset="1" stop-color="#6D4C41"/>
    </radialGradient>
    <linearGradient id="SVGID_1_" gradientTransform="matrix(1 0 0 -1 0 0)" gradientUnits="userSpaceOnUse" x1="64" x2="64" y1="-95.9599" y2="-137.7768">
      <stop offset="3.200000e-03" stop-color="#448AFF"/>
      <stop offset="0.4042" stop-color="#3B7DFF"/>
      <stop offset="1" stop-color="#2962FF"/>
    </linearGradient>
    <radialGradient id="XMLID_2_" cx="64" cy="-31.937619" gradientTransform="matrix(1 0 0 -0.9806 0 0)" gradientUnits="userSpaceOnUse" r="34.638">
      <stop offset="0" stop-color="#FFFF00"/>
      <stop offset="0.325" stop-color="#FFF600"/>
      <stop offset="0.8535" stop-color="#FFDE00"/>
      <stop offset="0.9978" stop-color="#FFD600"/>
    </radialGradient>
    <linearGradient id="SVGID_2_" gradientTransform="matrix(1 0 0 -1 0 0)" gradientUnits="userSpaceOnUse" x1="44.025" x2="44.025" y1="-98.331" y2="-136.0499">
      <stop offset="3.200000e-03" stop-color="#FF9100"/>
      <stop offset="0.4399" stop-color="#FF8400"/>
      <stop offset="1" stop-color="#FF6D00"/>
    </linearGradient>
    <linearGradient id="SVGID_3_" gradientTransform="matrix(1 0 0 -1 0 0)" gradientUnits="userSpaceOnUse" x1="43.075" x2="43.075" y1="-98.1231" y2="-136.8342">
      <stop offset="3.200000e-03" stop-color="#FFFF00"/>
      <stop offset="0.6783" stop-color="#FFF200"/>
      <stop offset="1" stop-color="#FFEA00"/>
    </linearGradient>
    <linearGradient id="SVGID_4_" gradientTransform="matrix(1 0 0 -1 0 0)" gradientUnits="userSpaceOnUse" x1="83.975" x2="83.975" y1="-98.3686" y2="-136.0326">
      <stop offset="3.200000e-03" stop-color="#FF9100"/>
      <stop offset="0.4399" stop-color="#FF8400"/>
      <stop offset="1" stop-color="#FF6D00"/>
    </linearGradient>
    <linearGradient id="SVGID_5_" gradientTransform="matrix(1 0 0 -1 0 0)" gradientUnits="userSpaceOnUse" x1="84.92" x2="84.92" y1="-98.2209" y2="-136.7864">
      <stop offset="3.200000e-03" stop-color="#FFFF00"/>
      <stop offset="0.6783" stop-color="#FFF200"/>
      <stop offset="1" stop-color="#FFEA00"/>
    </linearGradient>
    <linearGradient id="SVGID_6_" gradientTransform="matrix(1 0 0 -1 0 0)" gradientUnits="userSpaceOnUse" x1="64.3215" x2="64.3215" y1="-4.9146" y2="-41.9521">
      <stop offset="0" stop-color="#FFFF00"/>
      <stop offset="0.4462" stop-color="#FFF900"/>
      <stop offset="1" stop-color="#FFEA00"/>
    </linearGradient>
  </defs>
  <path d="M116,124.14 L116,121.02 C116,104.24 89.65,95.93 64,95.96 C38.51,95.99 12,103.24 12,121.02 L12,124.14 L116,124.14 Z" fill="url(#SVGID_1_)"/>
  <path d="M18,52.31 C18,61.65 38.6,69.23 64,69.23 C89.4,69.23 110,61.65 110,52.31 C110,42.97 18,42.96 18,52.31 Z" fill="#FFEA00"/>
  <path d="M105.38,52.29 C97.26,46.98 85.84,42.58 64,42.57 C42.15,42.58 30.73,46.97 22.62,52.29 C22,52.7 21.84,53.5 22.29,54.09 C26.75,59.93 45.76,65.67 64,65.68 C82.24,65.66 102,59.06 105.71,54.1 C106.15,53.5 106.01,52.7 105.38,52.29 Z" fill="#EDBF00"/>
  <path id="hair_2_" d="M104.11,45.38 C104.11,62.85 103.16,85.45 99.07,101.95 C89.34,97.94 76.59,95.95 64,95.96 C51.44,95.98 38.63,97.75 28.86,101.67 C24.83,85.19 23.89,62.75 23.89,45.38 C23.89,44.77 23.56,9.85 64.57,9.85 C105.58,9.85 104.11,44.77 104.11,45.38 Z" fill="#543930"/>
  <path id="neck_1_" d="M64,90.11 L54.92,90.11 L54.92,100.09 C54.92,104.6 58.62,108.26 63.18,108.26 L64.83,108.26 C69.39,108.26 73.09,104.6 73.09,100.09 L73.09,90.11 C73.08,90.11 64,90.11 64,90.11 Z" fill="#99674F"/>
  <path id="head_1_" d="M64,15.77 C46.8,15.77 30.87,28.56 30.87,55.68 C30.87,77.47 44.36,90.35 56.1,94.51 C58.9,95.5 61.6,96 64,96 C66.38,96 69.07,95.51 71.85,94.53 C83.61,90.39 97.13,77.5 97.13,55.69 C97.13,28.56 81.2,15.77 64,15.77 Z" fill="#BA8D68"/>
  <path id="hair_3_" d="M101.89,45.38 C101.89,45.38 102.91,9.81 64.08,9.81 C25.25,9.81 26.11,45.38 26.11,45.38 C26.11,45.38 26.44,76.72 29.31,82.64 C32.18,88.56 36.5,88.35 36.5,88.35 C36.5,88.35 34.47,75.95 34.24,63.45 C34.18,60.53 33.3,47.72 39.4,46.36 C61.76,41.34 74.41,31.48 74.41,31.48 C77.7,38.67 87.99,45.67 91.68,48.34 C94.71,50.53 94.29,59.54 94.23,63.37 L91.18,88.29 C91.18,88.29 95.86,88.66 98.83,82.65 C101.8,76.62 101.89,45.38 101.89,45.38 Z" fill="#543930"/>
  <path d="M53.33,58.81 A4.93 5.1 0 1 1 43.47,58.81 A4.93 5.1 0 1 1 53.33,58.81 Z" fill="#49362E"/>
  <path d="M84.53,58.81 A4.93 5.1 0 1 1 74.67,58.81 A4.93 5.1 0 1 1 84.53,58.81 Z" fill="#49362E"/>
  <path d="M55.64,49.82 C54.71,48.59 52.57,46.81 48.41,46.81 C44.25,46.81 42.1,48.6 41.18,49.82 C40.77,50.36 40.87,50.99 41.16,51.37 C41.42,51.72 42.2,52.05 43.06,51.76 C43.92,51.47 45.6,50.6 48.41,50.58 C51.22,50.6 52.9,51.47 53.76,51.76 C54.62,52.05 55.4,51.73 55.66,51.37 C55.94,50.99 56.05,50.36 55.64,49.82 Z" fill="#613E31"/>
  <path d="M86.83,49.82 C85.9,48.59 83.76,46.81 79.6,46.81 C75.44,46.81 73.29,48.6 72.37,49.82 C71.96,50.36 72.06,50.99 72.35,51.37 C72.61,51.72 73.39,52.05 74.25,51.76 C75.11,51.47 76.79,50.6 79.6,50.58 C82.41,50.6 84.09,51.47 84.95,51.76 C85.81,52.05 86.59,51.73 86.85,51.37 C87.13,50.99 87.24,50.36 86.83,49.82 Z" fill="#613E31"/>
  <path id="nose" d="M67.81,68.15 C67.7,68.11 67.6,68.08 67.49,68.07 L60.5,68.07 C60.39,68.08 60.29,68.11 60.18,68.15 C59.55,68.41 59.2,69.06 59.5,69.76 C59.8,70.46 61.19,72.42 63.99,72.42 C66.79,72.42 68.19,70.46 68.49,69.76 C68.79,69.06 68.45,68.41 67.81,68.15 Z" fill="#99674F"/>
  <path id="mouth" d="M72.32,76.23 C69.17,78.1 58.85,78.1 55.71,76.23 C53.9,75.16 52.06,76.8 52.81,78.44 C53.55,80.05 59.18,83.8 64.04,83.8 C68.9,83.8 74.46,80.05 75.2,78.44 C75.95,76.8 74.13,75.16 72.32,76.23 Z" fill="#5D4037"/>
  <path id="hairHighlights" d="M104.12,42.7 C104.12,61.05 103.45,84.75 99.07,101.95 C89.49,98.16 76.48,96.05 64.16,96.05 L64.02,96.05 C51.68,96.07 38.52,97.96 28.86,101.67 C24.54,84.61 23.91,60.94 23.91,42.7 C23.91,42.09 23.58,13.17 64.59,13.17 C105.6,13.17 104.12,42.09 104.12,42.7 Z" fill="url(#hairHighlights_1_)"/>
  <path d="M58.5,124.14 L29.55,124.14 L29.55,101.4 C31.34,100.7 33.23,100.08 35.19,99.54 C38.08,98.72 41.13,98.05 44.29,97.53 C46.43,97.17 48.62,96.88 50.84,96.65 L58.5,124.14 Z" fill="url(#SVGID_2_)"/>
  <path d="M50.96,124.14 L36.29,124.14 L35.19,99.54 C38.08,98.72 41.13,98.05 44.29,97.53 L50.96,124.14 Z" fill="url(#SVGID_3_)"/>
  <path d="M98.45,101.7 L98.45,124.14 L69.5,124.14 L77.15,96.69 C79.36,96.93 81.55,97.25 83.68,97.63 C86.85,98.2 89.91,98.9 92.8,99.76 C94.77,100.34 96.66,100.99 98.45,101.7 Z" fill="url(#SVGID_4_)"/>
  <path d="M92.8,99.76 L91.71,124.14 L77.04,124.14 L83.68,97.63 C86.85,98.2 89.91,98.9 92.8,99.76 Z" fill="url(#SVGID_5_)"/>
  <path id="XMLID_4_" d="M64.41,8.1 C17.65,8.1 21.17,54.53 21.17,54.53 C21.17,54.53 33.38,43.73 64.67,43.73 C95.96,43.73 106.77,53.53 106.77,53.53 C106.77,53.53 111.17,8.1 64.41,8.1 Z" fill="url(#XMLID_2_)"/>
  <path d="M74.72,42.33 L53.92,42.33 L53.92,9.23 C53.92,6.44 56.18,4.18 58.97,4.18 L69.67,4.18 C72.46,4.18 74.72,6.44 74.72,9.23 L74.72,42.33 Z" fill="url(#SVGID_6_)"/>
  <path id="XMLID_3_" d="M54.07,8.954 L54.07,31.39 C52.692,21.555 50.73,14.377 47.354,10.651 C49.426,9.951 51.66,9.378 54.07,8.954 Z" fill="#EDBF00" opacity="0.5"/>
  <path d="M74.76,8.94 C77.184,9.36 79.426,9.929 81.5,10.623 C78.109,14.342 76.142,21.531 74.76,31.39 Z" fill="#EDBF00" opacity="0.5"/>
  <path d="M109.53,51.17 C109.28,50.75 108.89,50.43 108.46,50.18 C90.36,39.76 64,40.1 64,40.1 C64,40.1 37.64,39.76 19.54,50.17 C19.1,50.42 18.72,50.74 18.47,51.16 C17.94,52.06 17.5,53.77 19.22,56.24 C19.22,56.24 30.17,45.39 64,44.71 C97.82,45.4 108.78,56.24 108.78,56.24 C110.5,53.78 110.06,52.07 109.53,51.17 Z" fill="#FFEA00"/>
</svg>
